img/dashed-arrow-2.svg

<svg xmlns="http://www.w3.org/2000/svg" width="52" height="24" viewBox="0 0 52 24" fill="none">
  <path d="M1.44183 5.23403C1.57109 4.99001 1.47805 4.68741 1.23403 4.55815C0.990007 4.42889 0.687405 4.52192 0.558145 4.76595L1.44183 5.23403ZM5.00281 15.2896L5.25583 14.8583L5.00281 15.2896ZM19 12.5L19.4312 12.753L19.4442 12.7309L19.4548 12.7076L19 12.5ZM11 9.5L11.4313 9.75301L11 9.5ZM12.5 18L12.1 18.3L12.1259 18.3345L12.1573 18.3641L12.5 18ZM33 21.5L33.1756 21.9682L33.1965 21.9603L33.2167 21.9506L33 21.5ZM49.4544 1.23464C49.3402 0.983186 49.0439 0.871853 48.7924 0.985976L44.6947 2.84571C44.4432 2.95983 44.3319 3.25619 44.446 3.50765C44.5602 3.75911 44.8565 3.87044 45.108 3.75631L48.7504 2.10322L50.4035 5.74565C50.5176 5.9971 50.814 6.10844 51.0654 5.99431C51.3169 5.88019 51.4282 5.58383 51.3141 5.33237L49.4544 1.23464ZM0.195318 5.82775C0.14369 6.09902 0.321748 6.36078 0.593021 6.41241C0.864294 6.46404 1.12606 6.28598 1.17769 6.01471L0.195318 5.82775ZM1.18357 7.79228C1.14251 7.5192 0.887856 7.33112 0.614783 7.37218C0.34171 7.41323 0.153625 7.66789 0.194682 7.94096L1.18357 7.79228ZM0.697288 9.92287C0.788024 10.1837 1.07301 10.3216 1.33382 10.2308C1.59463 10.1401 1.7325 9.8551 1.64176 9.59429L0.697288 9.92287ZM2.38598 11.3249C2.2599 11.0792 1.95852 10.9823 1.71285 11.1084C1.46717 11.2345 1.37023 11.5358 1.49631 11.7815L2.38598 11.3249ZM2.54246 13.5145C2.70206 13.7398 3.01412 13.7931 3.23947 13.6335C3.46482 13.4739 3.51812 13.1618 3.35851 12.9365L2.54246 13.5145ZM4.56235 14.3337C4.35841 14.1476 4.04216 14.1619 3.85597 14.3659C3.66979 14.5698 3.68418 14.8861 3.88812 15.0723L4.56235 14.3337ZM5.72256 16.1218C5.98826 16.197 6.26462 16.0426 6.33983 15.7769C6.41505 15.5112 6.26062 15.2348 5.99492 15.1596L5.72256 16.1218ZM7.71892 15.4032C7.44301 15.3919 7.21015 15.6063 7.19882 15.8823C7.18748 16.1582 7.40197 16.391 7.67787 16.4024L7.71892 15.4032ZM9.59641 16.3576C9.87171 16.336 10.0773 16.0953 10.0557 15.82C10.034 15.5447 9.7933 15.3391 9.51801 15.3607L9.59641 16.3576ZM11.3236 15.1391C11.0511 15.1838 10.8664 15.4409 10.911 15.7134C10.9557 15.9859 11.2128 16.1706 11.4853 16.126L11.3236 15.1391ZM13.345 15.7506C13.6135 15.6862 13.7789 15.4162 13.7145 15.1477C13.65 14.8792 13.3801 14.7138 13.1116 14.7782L13.345 15.7506ZM14.8659 14.2856C14.6033 14.371 14.4596 14.6531 14.545 14.9157C14.6304 15.1783 14.9125 15.322 15.1751 15.2366L14.8659 14.2856ZM16.9635 14.5539C17.2152 14.4404 17.3273 14.1444 17.2138 13.8926C17.1003 13.6409 16.8042 13.5288 16.5525 13.6423L16.9635 14.5539ZM18.0602 12.779C17.8427 12.9491 17.8042 13.2633 17.9742 13.4809C18.1443 13.6985 18.4585 13.737 18.6761 13.5669L18.0602 12.779ZM19.8258 11.5205C19.8725 11.2483 19.6897 10.9898 19.4176 10.9432C19.1454 10.8965 18.8869 11.0792 18.8402 11.3514L19.8258 11.5205ZM18.5991 9.46462C18.7137 9.71583 19.0103 9.82651 19.2615 9.71184C19.5128 9.59716 19.6234 9.30056 19.5088 9.04935L18.5991 9.46462ZM17.9051 7.16731C17.6772 7.01137 17.3661 7.06972 17.2101 7.29762C17.0542 7.52553 17.1125 7.83669 17.3404 7.99262L17.9051 7.16731ZM15.5011 7.32749C15.7761 7.35248 16.0193 7.1498 16.0443 6.87479C16.0692 6.59979 15.8666 6.35659 15.5916 6.3316L15.5011 7.32749ZM13.1635 6.75779C12.9132 6.87448 12.8049 7.17197 12.9216 7.42224C13.0383 7.67251 13.3358 7.7808 13.5861 7.66411L13.1635 6.75779ZM12.0222 8.90485C12.1987 8.69244 12.1696 8.3772 11.9572 8.20074C11.7448 8.02428 11.4295 8.05342 11.2531 8.26582L12.0222 8.90485ZM10.064 10.3945C9.98128 10.658 10.1278 10.9386 10.3913 11.0213C10.6548 11.104 10.9354 10.9575 11.0181 10.694L10.064 10.3945ZM10.7956 12.7677C10.7748 12.4924 10.5347 12.286 10.2594 12.3068C9.98402 12.3275 9.77764 12.5676 9.79841 12.843L10.7956 12.7677ZM10.3435 15.2026C10.4418 15.4607 10.7307 15.5902 10.9887 15.4919C11.2468 15.3937 11.3763 15.1048 11.2781 14.8467L10.3435 15.2026ZM12.2694 16.7904C12.1212 16.5574 11.8122 16.4886 11.5792 16.6368C11.3462 16.785 11.2774 17.094 11.4256 17.327L12.2694 16.7904ZM12.9988 19.1082C13.2113 19.2845 13.5266 19.2552 13.7029 19.0427C13.8792 18.8302 13.8499 18.5149 13.6374 18.3386L12.9988 19.1082ZM15.3517 19.5847C15.1183 19.4371 14.8095 19.5067 14.6619 19.7401C14.5143 19.9735 14.5839 20.2823 14.8173 20.4299L15.3517 19.5847ZM16.7914 21.5054C17.042 21.6216 17.3392 21.5127 17.4554 21.2621C17.5715 21.0116 17.4626 20.7144 17.2121 20.5982L16.7914 21.5054ZM19.1874 21.3666C18.9243 21.2826 18.643 21.4278 18.559 21.6909C18.4751 21.954 18.6202 22.2353 18.8833 22.3193L19.1874 21.3666ZM21.0543 22.873C21.3253 22.9257 21.5878 22.7486 21.6405 22.4776C21.6932 22.2065 21.5162 21.944 21.2451 21.8913L21.0543 22.873ZM23.3552 22.1836C23.08 22.1601 22.838 22.3642 22.8145 22.6393C22.7911 22.9145 22.9951 23.1565 23.2703 23.18L23.3552 22.1836ZM25.5013 23.2596C25.7775 23.2562 25.9986 23.0296 25.9952 22.7535C25.9919 22.4774 25.7653 22.2563 25.4892 22.2596L25.5013 23.2596ZM27.625 22.1373C27.3503 22.1651 27.1502 22.4105 27.1781 22.6852C27.2059 22.9599 27.4513 23.16 27.726 23.1322L27.625 22.1373ZM29.9282 22.8141C30.1996 22.7632 30.3783 22.5019 30.3274 22.2305C30.2765 21.9591 30.0152 21.7804 29.7438 21.8313L29.9282 22.8141ZM31.8292 21.3456C31.5634 21.4206 31.4088 21.6968 31.4838 21.9626C31.5588 22.2283 31.8351 22.383 32.1008 22.308L31.8292 21.3456ZM34.0675 21.4798C34.3047 21.3384 34.3824 21.0315 34.241 20.7943C34.0996 20.5571 33.7927 20.4794 33.5555 20.6208L34.0675 21.4798ZM35.0863 19.6181C34.8611 19.778 34.8081 20.0901 34.968 20.3153C35.1278 20.5405 35.4399 20.5934 35.6651 20.4336L35.0863 19.6181ZM37.1792 19.2838C37.3939 19.1101 37.4271 18.7953 37.2534 18.5806C37.0797 18.3659 36.7649 18.3327 36.5502 18.5064L37.1792 19.2838ZM37.9513 17.3046C37.7468 17.4901 37.7315 17.8064 37.917 18.0108C38.1026 18.2153 38.4188 18.2306 38.6233 18.045L37.9513 17.3046ZM39.9907 16.7358C40.1851 16.5397 40.1836 16.2231 39.9875 16.0287C39.7914 15.8343 39.4748 15.8357 39.2804 16.0319L39.9907 16.7358ZM40.5449 14.6892C40.3607 14.8949 40.3781 15.211 40.5839 15.3952C40.7896 15.5794 41.1057 15.562 41.2899 15.3563L40.5449 14.6892ZM42.5199 13.9128C42.6938 13.6983 42.661 13.3835 42.4465 13.2095C42.232 13.0356 41.9172 13.0684 41.7432 13.2829L42.5199 13.9128ZM42.8697 11.8246C42.7061 12.047 42.7537 12.36 42.9762 12.5236C43.1986 12.6873 43.5116 12.6396 43.6752 12.4172L42.8697 11.8246ZM44.7608 10.8681C44.914 10.6384 44.8521 10.3279 44.6224 10.1747C44.3927 10.0214 44.0822 10.0834 43.9289 10.3131L44.7608 10.8681ZM44.9209 8.75169C44.7781 8.988 44.8538 9.29539 45.0901 9.43826C45.3264 9.58113 45.6338 9.50539 45.7767 9.26908L44.9209 8.75169ZM46.7184 7.63236C46.8509 7.3901 46.7619 7.08627 46.5197 6.95374C46.2774 6.8212 45.9736 6.91015 45.8411 7.15241L46.7184 7.63236ZM46.6942 5.5117C46.5719 5.75931 46.6735 6.05914 46.9211 6.18139C47.1688 6.30363 47.4686 6.20201 47.5908 5.95439L46.6942 5.5117ZM48.3935 4.24107C48.5056 3.98869 48.3919 3.69325 48.1395 3.58118C47.8871 3.46911 47.5917 3.58286 47.4796 3.83524L48.3935 4.24107ZM48.1954 2.13328C48.0934 2.38986 48.2186 2.68061 48.4752 2.78269C48.7318 2.88476 49.0225 2.75951 49.1246 2.50292L48.1954 2.13328ZM0.558145 4.76595C0.384244 5.09425 0.266719 5.45257 0.195318 5.82775L1.17769 6.01471C1.2334 5.72194 1.32161 5.46099 1.44183 5.23403L0.558145 4.76595ZM0.194682 7.94096C0.292378 8.59072 0.467106 9.26124 0.697288 9.92287L1.64176 9.59429C1.42825 8.98056 1.27053 8.37068 1.18357 7.79228L0.194682 7.94096ZM1.49631 11.7815C1.81195 12.3965 2.16629 12.9833 2.54246 13.5145L3.35851 12.9365C3.0113 12.4463 2.68126 11.9002 2.38598 11.3249L1.49631 11.7815ZM3.88812 15.0723C4.16865 15.3284 4.45757 15.5494 4.7498 15.7208L5.25583 14.8583C5.03687 14.7299 4.80379 14.5542 4.56235 14.3337L3.88812 15.0723ZM4.7498 15.7208C5.03873 15.8904 5.36813 16.0215 5.72256 16.1218L5.99492 15.1596C5.70136 15.0765 5.45476 14.975 5.25583 14.8583L4.7498 15.7208ZM7.67787 16.4024C8.28409 16.4273 8.93114 16.4099 9.59641 16.3576L9.51801 15.3607C8.88486 15.4105 8.27835 15.4262 7.71892 15.4032L7.67787 16.4024ZM11.4853 16.126C12.1089 16.0239 12.7342 15.8972 13.345 15.7506L13.1116 14.7782C12.524 14.9193 11.9227 15.041 11.3236 15.1391L11.4853 16.126ZM15.1751 15.2366C15.816 15.0283 16.4204 14.7988 16.9635 14.5539L16.5525 13.6423C16.0481 13.8697 15.4785 14.0865 14.8659 14.2856L15.1751 15.2366ZM18.6761 13.5669C18.988 13.3231 19.2557 13.0522 19.4312 12.753L18.5687 12.247C18.4799 12.3983 18.3164 12.5788 18.0602 12.779L18.6761 13.5669ZM19.4548 12.7076C19.6364 12.3099 19.7586 11.9125 19.8258 11.5205L18.8402 11.3514C18.7882 11.6549 18.6924 11.9698 18.5451 12.2923L19.4548 12.7076ZM19.5088 9.04935C19.1596 8.28455 18.5937 7.63845 17.9051 7.16731L17.3404 7.99262C17.8901 8.36872 18.331 8.87732 18.5991 9.46462L19.5088 9.04935ZM15.5916 6.3316C14.7953 6.25923 13.9618 6.38557 13.1635 6.75779L13.5861 7.66411C14.2181 7.36945 14.8738 7.27049 15.5011 7.32749L15.5916 6.3316ZM11.2531 8.26582C11.0103 8.55805 10.7813 8.88466 10.5687 9.24699L11.4313 9.75301C11.6179 9.43481 11.8161 9.15303 12.0222 8.90485L11.2531 8.26582ZM10.5687 9.24699C10.3792 9.57 10.2023 9.95397 10.064 10.3945L11.0181 10.694C11.1332 10.3274 11.279 10.0125 11.4313 9.75301L10.5687 9.24699ZM9.79841 12.843C9.85299 13.5663 10.021 14.3556 10.3435 15.2026L11.2781 14.8467C10.9883 14.0857 10.8426 13.3909 10.7956 12.7677L9.79841 12.843ZM11.4256 17.327C11.6282 17.6456 11.8525 17.97 12.1 18.3L12.9 17.7C12.6672 17.3897 12.4577 17.0863 12.2694 16.7904L11.4256 17.327ZM12.1573 18.3641C12.4343 18.6247 12.7149 18.8726 12.9988 19.1082L13.6374 18.3386C13.3695 18.1163 13.1044 17.8823 12.8427 17.6359L12.1573 18.3641ZM14.8173 20.4299C15.4673 20.8409 16.1272 21.1974 16.7914 21.5054L17.2121 20.5982C16.5858 20.3078 15.964 19.9719 15.3517 19.5847L14.8173 20.4299ZM18.8833 22.3193C19.6115 22.5517 20.3375 22.7336 21.0543 22.873L21.2451 21.8913C20.5642 21.759 19.8761 21.5865 19.1874 21.3666L18.8833 22.3193ZM23.2703 23.18C24.0375 23.2453 24.7845 23.2683 25.5013 23.2596L25.4892 22.2596C24.8019 22.268 24.0875 22.246 23.3552 22.1836L23.2703 23.18ZM27.726 23.1322C28.5288 23.0507 29.2692 22.9377 29.9282 22.8141L29.7438 21.8313C29.1095 21.9502 28.3971 22.0589 27.625 22.1373L27.726 23.1322ZM32.1008 22.308C32.4394 22.2124 32.7053 22.1285 32.8879 22.068C32.9792 22.0377 33.0498 22.0133 33.0981 21.9962C33.1223 21.9876 33.141 21.9809 33.1539 21.9761C33.1604 21.9738 33.1655 21.9719 33.1691 21.9706C33.1709 21.9699 33.1723 21.9694 33.1734 21.969C33.174 21.9688 33.1744 21.9686 33.1748 21.9685C33.175 21.9684 33.1751 21.9683 33.1752 21.9683C33.1753 21.9683 33.1754 21.9682 33.1754 21.9682C33.1755 21.9682 33.1755 21.9682 33.1755 21.9682C33.1755 21.9682 33.1756 21.9682 33 21.5C32.8244 21.0318 32.8245 21.0318 32.8245 21.0318C32.8245 21.0318 32.8245 21.0318 32.8245 21.0318C32.8246 21.0318 32.8246 21.0318 32.8246 21.0318C32.8247 21.0318 32.8247 21.0317 32.8247 21.0317C32.8247 21.0317 32.8246 21.0318 32.8244 21.0319C32.824 21.032 32.8233 21.0323 32.8222 21.0327C32.82 21.0335 32.8164 21.0348 32.8114 21.0366C32.8014 21.0403 32.7857 21.046 32.7645 21.0534C32.7222 21.0684 32.658 21.0907 32.5733 21.1187C32.4038 21.1749 32.1523 21.2544 31.8292 21.3456L32.1008 22.308ZM33 21.5C33.2167 21.9506 33.2167 21.9506 33.2167 21.9506C33.2167 21.9506 33.2168 21.9506 33.2168 21.9506C33.2169 21.9505 33.2169 21.9505 33.217 21.9505C33.2171 21.9504 33.2173 21.9503 33.2174 21.9502C33.2178 21.9501 33.2182 21.9499 33.2187 21.9497C33.2196 21.9492 33.2209 21.9486 33.2224 21.9478C33.2255 21.9463 33.2297 21.9443 33.235 21.9417C33.2456 21.9364 33.2607 21.9289 33.2802 21.919C33.319 21.8993 33.3752 21.8703 33.4476 21.8316C33.5924 21.7542 33.8021 21.638 34.0675 21.4798L33.5555 20.6208C33.304 20.7707 33.1079 20.8793 32.9762 20.9497C32.9103 20.9849 32.8606 21.0106 32.8281 21.0271C32.8118 21.0353 32.7999 21.0413 32.7924 21.045C32.7886 21.0468 32.786 21.0481 32.7845 21.0488C32.7837 21.0492 32.7832 21.0494 32.7831 21.0495C32.783 21.0496 32.7829 21.0496 32.783 21.0496C32.783 21.0495 32.7831 21.0495 32.7831 21.0495C32.7831 21.0495 32.7832 21.0495 32.7832 21.0494C32.7832 21.0494 32.7833 21.0494 32.7833 21.0494C32.7833 21.0494 32.7834 21.0494 33 21.5ZM35.6651 20.4336C36.1232 20.1085 36.6319 19.7266 37.1792 19.2838L36.5502 18.5064C36.02 18.9354 35.528 19.3046 35.0863 19.6181L35.6651 20.4336ZM38.6233 18.045C39.0654 17.6438 39.5228 17.2079 39.9907 16.7358L39.2804 16.0319C38.8253 16.4911 38.3807 16.9148 37.9513 17.3046L38.6233 18.045ZM41.2899 15.3563C41.6965 14.9022 42.1074 14.4214 42.5199 13.9128L41.7432 13.2829C41.3412 13.7786 40.9408 14.247 40.5449 14.6892L41.2899 15.3563ZM43.6752 12.4172C44.0386 11.9232 44.4011 11.4071 44.7608 10.8681L43.9289 10.3131C43.5779 10.8392 43.2242 11.3428 42.8697 11.8246L43.6752 12.4172ZM45.7767 9.26908C46.0949 8.74278 46.4093 8.19737 46.7184 7.63236L45.8411 7.15241C45.5389 7.70468 45.2317 8.23761 44.9209 8.75169L45.7767 9.26908ZM47.5908 5.95439C47.8644 5.40033 48.1323 4.82935 48.3935 4.24107L47.4796 3.83524C47.2239 4.41106 46.9617 4.96975 46.6942 5.5117L47.5908 5.95439ZM49.1246 2.50292C49.2405 2.21154 49.3547 1.91628 49.4671 1.61711L48.531 1.26545C48.4209 1.5586 48.309 1.84786 48.1954 2.13328L49.1246 2.50292Z" fill="white"/>
</svg>

<svg xmlns="http://www.w3.org/2000/svg" width="52" height="24" fill="none"><path d="M1.442 5.234a.5.5 0 10-.884-.468l.884.468zm3.56 10.056l.254-.432-.253.432zM19 12.5l.431.253.013-.022.01-.023L19 12.5zm-8-3l.431.253L11 9.5zm1.5 8.5l-.4.3.026.034.031.03L12.5 18zM33 21.5l.176.468.02-.008.02-.01L33 21.5zM49.454 1.235a.5.5 0 00-.662-.249l-4.097 1.86a.5.5 0 10.413.91l3.642-1.653 1.654 3.643a.5.5 0 10.91-.414l-1.86-4.097zM.195 5.828a.5.5 0 00.983.187l-.983-.187zm.989 1.964a.5.5 0 10-.99.149l.99-.149zm-.487 2.13a.5.5 0 10.945-.328l-.945.329zm1.689 1.403a.5.5 0 10-.89.457l.89-.457zm.156 2.19a.5.5 0 00.817-.579l-.817.579zm2.02.819a.5.5 0 00-.674.738l.674-.738zm1.16 1.788a.5.5 0 10.273-.962l-.272.962zm1.997-.719a.5.5 0 10-.041 1l.04-1zm1.877.955a.5.5 0 10-.078-.997l.078.997zm1.728-1.219a.5.5 0 00.161.987l-.161-.987zm2.021.612a.5.5 0 00-.233-.973l.233.973zm1.52-1.465a.5.5 0 00.31.95l-.31-.95zm2.098.268a.5.5 0 00-.41-.912l.41.912zm1.097-1.775a.5.5 0 00.616.788l-.616-.788zm1.766-1.258a.5.5 0 10-.986-.17l.986.17zm-1.227-2.056a.5.5 0 10.91-.416l-.91.416zm-.694-2.298a.5.5 0 00-.565.826l.565-.826zm-2.404.16a.5.5 0 00.09-.995l-.09.995zm-2.337-.57a.5.5 0 10.422.907l-.422-.906zm-1.142 2.148a.5.5 0 10-.769-.64l.77.64zm-1.958 1.49a.5.5 0 10.954.299l-.954-.3zm.732 2.373a.5.5 0 00-.998.075l.998-.075zm-.452 2.435a.5.5 0 10.934-.356l-.934.356zm1.925 1.587a.5.5 0 10-.843.537l.843-.537zm.73 2.318a.5.5 0 00.638-.77l-.638.77zm2.353.477a.5.5 0 10-.535.845l.535-.845zm1.44 1.92a.5.5 0 10.42-.907l-.42.907zm2.395-.138a.5.5 0 10-.304.952l.304-.952zm1.867 1.506a.5.5 0 00.191-.982l-.19.982zm2.301-.69a.5.5 0 10-.085.997l.085-.996zm2.146 1.077a.5.5 0 00-.012-1l.012 1zm2.124-1.123a.5.5 0 10.101.995l-.101-.995zm2.303.677a.5.5 0 10-.184-.983l.184.983zm1.901-1.468a.5.5 0 10.272.962l-.272-.962zm2.239.134a.5.5 0 10-.512-.86l.512.86zm1.018-1.862a.5.5 0 00.58.816l-.58-.816zm2.093-.334a.5.5 0 10-.629-.778l.63.778zm.772-1.98a.5.5 0 10.672.741l-.672-.74zm2.04-.568a.5.5 0 00-.71-.704l.71.704zm.554-2.047a.5.5 0 10.745.667l-.745-.667zm1.975-.776a.5.5 0 00-.777-.63l.777.63zm.35-2.088a.5.5 0 10.805.592l-.805-.592zm1.89-.957a.5.5 0 00-.831-.555l.832.555zm.16-2.116a.5.5 0 00.857.517l-.856-.517zm1.798-1.12a.5.5 0 00-.877-.48l.877.48zm-.024-2.12a.5.5 0 10.897.442l-.897-.442zm1.7-1.27a.5.5 0 10-.914-.407l.914.406zm-.199-2.109a.5.5 0 00.93.37l-.93-.37zM.558 4.766a3.763 3.763 0 00-.363 1.062l.983.187a2.75 2.75 0 01.264-.781l-.884-.468zM.195 7.94c.097.65.272 1.32.502 1.982l.945-.329a10.128 10.128 0 01-.458-1.802l-.99.149zm1.301 3.84c.316.615.67 1.202 1.046 1.733l.817-.577a13.368 13.368 0 01-.973-1.612l-.89.457zm2.392 3.291c.28.256.57.477.862.649l.506-.863a4.203 4.203 0 01-.694-.524l-.674.738zm.862.649c.289.17.618.3.973.4l.272-.961a3.174 3.174 0 01-.74-.302l-.505.863zm2.928.681a16.2 16.2 0 001.918-.044l-.078-.997c-.633.05-1.24.065-1.8.042l-.04 1zm3.807-.276a26.005 26.005 0 001.86-.375l-.233-.973c-.588.141-1.19.263-1.788.361l.161.987zm3.69-.89a17.68 17.68 0 001.788-.682l-.41-.912c-.505.228-1.075.444-1.687.644l.31.95zm3.501-1.67c.312-.243.58-.514.755-.813l-.862-.506c-.09.151-.253.332-.509.532l.616.788zm.779-.858c.181-.398.304-.796.37-1.188l-.985-.169a3.813 3.813 0 01-.295.941l.91.416zm.054-3.659a4.625 4.625 0 00-1.604-1.882l-.565.826c.55.376.991.884 1.26 1.472l.909-.416zm-3.917-2.717a4.71 4.71 0 00-2.428.426l.422.906a3.71 3.71 0 011.915-.337l.09-.995zm-4.339 1.934a7.36 7.36 0 00-.684.981l.862.506c.187-.318.385-.6.591-.848l-.769-.64zm-.684.981c-.19.323-.367.707-.505 1.148l.954.299c.115-.367.261-.682.413-.941l-.862-.506zm-.77 3.596a8.4 8.4 0 00.545 2.36l.934-.356a7.4 7.4 0 01-.482-2.08l-.998.076zm1.627 4.484c.202.319.426.643.674.973l.8-.6c-.233-.31-.442-.614-.63-.91l-.844.537zm.731 1.037c.277.26.558.509.842.744l.638-.77a16.93 16.93 0 01-.794-.702l-.686.728zm2.66 2.066c.65.41 1.31.767 1.974 1.075l.421-.907a16.33 16.33 0 01-1.86-1.013l-.535.845zm4.066 1.89c.729.232 1.454.414 2.171.553l.191-.982a18.133 18.133 0 01-2.058-.524l-.304.952zm4.387.86a23.03 23.03 0 002.231.08l-.012-1a21.986 21.986 0 01-2.134-.076l-.085.996zm4.456-.048a26.477 26.477 0 002.202-.318l-.184-.983c-.634.12-1.347.228-2.119.306l.101.995zm4.375-.824a18.53 18.53 0 001.053-.332l.015-.005.004-.002h.002L33 21.5l-.175-.468h-.003a4.047 4.047 0 01-.058.021 17.409 17.409 0 01-.935.292l.272.963zM33 21.5l.217.45h.002l.003-.002.013-.006.045-.023.168-.087c.144-.078.354-.194.62-.352l-.512-.86a14.429 14.429 0 01-.728.407l-.036.018-.008.004h-.001L33 21.5zm2.665-1.066c.458-.326.967-.707 1.514-1.15l-.629-.778c-.53.43-1.022.799-1.464 1.112l.58.816zm2.958-2.389c.442-.401.9-.837 1.368-1.31l-.71-.703c-.456.46-.9.883-1.33 1.273l.672.74zm2.667-2.689c.407-.454.817-.935 1.23-1.443l-.777-.63c-.402.496-.802.964-1.198 1.406l.745.667zm2.385-2.939a40.98 40.98 0 001.086-1.549l-.832-.555c-.351.526-.705 1.03-1.06 1.512l.806.592zm2.102-3.148c.318-.526.632-1.072.941-1.637l-.877-.48c-.302.553-.61 1.086-.92 1.6l.856.517zm1.814-3.315c.273-.554.541-1.125.803-1.713l-.914-.406a45.599 45.599 0 01-.786 1.677l.897.442zm1.534-3.451a49.5 49.5 0 00.342-.886l-.936-.352c-.11.294-.222.583-.336.868l.93.37z" fill="#fff"/></svg>
